packages/icon-set-ionic/svg/sharp/diamond-sharp.svg

<svg viewBox="0 0 512 512" xmlns="http://www.w3.org/2000/svg"><path d="m396.31 32h-132.31l84.19 112.26zm-280.62 0 48.12 112.26 84.19-112.26zm140.31 42.67-64 85.33h128zm166.95-23.61-46.69 108.94h111.74zm-333.9 0-66.05 108.94h112.74zm57.63 140.94h-122.68l222.8 288h.53zm218.64 0-100.65 288h.53l222.8-288zm-35.93 0h-146.78l73.39 208z"/></svg>

<svg xmlns="http://www.w3.org/2000/svg" viewBox="0 0 512 512"><path d="M396.31 32H264l84.19 112.26zm-280.62 0 48.12 112.26L248 32zM256 74.67 192 160h128zm166.95-23.61L376.26 160H488zm-333.9 0L23 160h112.74zM146.68 192H24l222.8 288h.53zm218.64 0L264.67 480h.53L488 192zm-35.93 0H182.61L256 400z"/></svg>
